X:658
%%etbk:tnset id:378,pos:2,rep:3x,ant:
%%etbk:wsite https://thesession.org/tunes/746
%%etbk:color #ffe6e6
%%etbk:pldat 2016-05-29T15:33,2016-05-24T17:27,2016-05-16T12:59,2015-05-20T18:42,2015-05-18T18:51,2015-04-08T16:13,2015-04-04T15:12
T: The Miller Of Droghan
Z: Piano Box Version by Martin Fleischmann
H: Created 2015-03-29 /  Last Modified 2016-05-26
R: reel
M: 4/4
L: 1/8
K: Gmaj
|:"G" !2!G2!3!BG DGBG| "em" !1!E!3!B!5!e!3!f !4!ge!1!d!3!B | "G"!1!G2!3!BG DG!3!B!2!A | "C"!1!GGGA "D"!3!B!5!dBA |
"G"G2BG DGBG | "em" EBef gfed|"bm" faef !1!d2!3!BA |1 "C"GEGA "D"~B3A:|2 "C" GEGA "D" !3!B!1!A !3!B!4!d||
"em" !5!e!1!E!2!~E2 DEBE | DEG!4!A "bm" !5!BDBA | "em" GE~E2 DEBE|DEG!4!A "bm"!3!BA Bd|
"em" !5!eE~E2 DEBE|DEGA "bm"BdBA|"em"GE~E2 DEBE|DEGA "bm" ~B3A||


